X:1
T:Humpty Dumpty
M:3/4
L:1/4
K:Cmaj
"C" C2 C|"F" E2 E|"G7" D E D| "C" C2 z|
w:Hump-ty Dump-ty sat on a wall.
"C" E2 E| "F" G2 G| "C" F G F |"G7" E3|
w:Hump-ty Dump-ty had a great fall.
"C" A A A| "F" G G G | "G" A A A |"C" G3|
w:All the king's hors-es and all the king's men 
"C" F F F| "F" E E E| "G" D E D | "C" C3|]
w:could not put Hump-ty to-geth-er a-gain.
